!!!id: bhatk3198s
!!!sthayee: Hamari madhaiyan kaisi suni
!!!vol: 3
!!!page: 198
!!!raag: bihag
!!!taal: teentaal
!!!tempo: madhyalaya
**kern
!!data: // >RS  S  G  M/  P  -  >S'N  -/  >NS'  -  S'  -/  [N  -  P]  -/
==1
dq
4c
4c
4e
4f
=
2g
ccq
2b
=
bq
2cc
2cc
=
2bH
2gh
!!data: // >PG  -  M  G/  -  M  >DP  -/  >PG  - M  -/  [G  -  S]  -/
==2
gq
2e
4f
[4e
=
4e]
4f
aq
2g
=
gq
2e
2f
=
2eH
2ch
!!data: // >SN,  -  P,  -/  >SN,  -  S  S/  >GP  G  -  M/  -  G  >RS  -/
==3
cq
2B
2G
=
cq
2B
4c
4c
=
eq
4g
2e
[4f
=
4f]
4e
dq
2c
!!data: // >MG  M  G  M/  =  =  =  =/  =  =  =  =/  =  =  =  =/
==4
fq
4e
4f
4e
4f
=
4ryy
4ryy
4ryy
4ryy
=
4ryy
4ryy
4ryy
4ryy
=
4ryy
4ryy
4ryy
4ryy
==
*-
